X: 4
T: Comb Your Hair And Curl It
R: slip jig
M: 9/8
L: 1/8
K: Dmaj
|: B2E E2F G2A | Bcd edc d2c || g2e e2d efg | f2d d2c def | | g2e e2d edc | d2B AGF GFE || g2e e2d eag | f2d d2c def | | g2e e2d edc | d2B AGF GFE |


Tune 1030	Setting 14254

